X:321
T: EINE HELDIN WOHL ERZOGEN
N: E1470
O: Europa, Mitteleuropa, Deutschland, Ober - Hessen; Wetterau
R: Staende -, Jaeger - Lied, Tod
M: 3/8
L: 1/16
K: D
DD | D2F2A2 | A4F2 | F2E2
E2 | E4G2 | A4G2 | F4
D2 | D2F2A2 | d4B2 | B2A2
F2 | A4A2 | G4A2 | F4
D2 | D2F2A2 | d4B2 | B2A2
F2 | A4A2 | G4A2 | F4

@@@ Tune index: 5005
